stepxx_web3/step06_dapps/step02_auth_with_wallet/public/icons/store-solid.svg

<svg xmlns="http://www.w3.org/2000/svg" fill="#3867d6" viewBox="0 0 576 512"><!--! Font Awesome Pro 6.1.1 by @fontawesome - https://fontawesome.com License - https://fontawesome.com/license (Commercial License) Copyright 2022 Fonticons, Inc.--><path d="M495.5 223.2c-3.9.5-7.9.8-12.1.8-26 0-49.2-11.4-65.1-29-15.9 17.6-39.1 29-65.2 29s-49.3-11.4-65.2-29c-15.9 17.6-39 29-65.2 29-26 0-49.2-11.4-65.1-29-15.9 17.6-39.1 29-65.24 29-4.06 0-8.15-.3-12.12-.8-55.32-7.4-81.495-72.6-51.91-119.4l57.33-90.67C90.76 4.979 99.87 0 109.6 0h356.8c9.7 0 18.8 4.978 23.9 13.13l57.3 90.67c29.7 46.9 3.4 112-52.1 119.4zm4.2 31.7c3.4-.5 8.3-1.3 12.3-2.3V448c0 35.3-28.7 64-64 64H128c-35.34 0-64-28.7-64-64V252.6c3.87 1 7.86 1.8 11.97 2.3h.12c5.26.7 10.74 1.1 16.27 1.1 12.44 0 24.44-1.9 35.64-5.4V384h320V250.7c11.2 3.4 23.1 5.3 35.4 5.3 5.6 0 11-.4 16.3-1.1z"/></svg>

<svg xmlns="http://www.w3.org/2000/svg" fill="#3867d6" viewBox="0 0 576 512"><!--! Font Awesome Pro 6.1.1 by @fontawesome - https://fontawesome.com License - https://fontawesome.com/license (Commercial License) Copyright 2022 Fonticons, Inc. --><path d="M495.5 223.2C491.6 223.7 487.6 224 483.4 224C457.4 224 434.2 212.6 418.3 195C402.4 212.6 379.2 224 353.1 224C327 224 303.8 212.6 287.9 195C272 212.6 248.9 224 222.7 224C196.7 224 173.5 212.6 157.6 195C141.7 212.6 118.5 224 92.36 224C88.3 224 84.21 223.7 80.24 223.2C24.92 215.8-1.255 150.6 28.33 103.8L85.66 13.13C90.76 4.979 99.87 0 109.6 0H466.4C476.1 0 485.2 4.978 490.3 13.13L547.6 103.8C577.3 150.7 551 215.8 495.5 223.2H495.5zM499.7 254.9C503.1 254.4 508 253.6 512 252.6V448C512 483.3 483.3 512 448 512H128C92.66 512 64 483.3 64 448V252.6C67.87 253.6 71.86 254.4 75.97 254.9L76.09 254.9C81.35 255.6 86.83 256 92.36 256C104.8 256 116.8 254.1 128 250.6V384H448V250.7C459.2 254.1 471.1 256 483.4 256C489 256 494.4 255.6 499.7 254.9L499.7 254.9z"/></svg>
